X:1
T:The Alderman's Hat
C:Traditional
M:4/4
L:1/4
Q:1/4=116
K:D
A|d2 f d|e2 c A|d2 f d|g2 e d:|
d2 f a|g f e d|c d2 e|d4|]
